src/icons/folder-java.svg

<?xml version="1.0" encoding="UTF-8" standalone="no"?>
<svg
   version="1.2"
   viewBox="0 0 16 16"
   width="16"
   height="16"
   id="svg4"
   sodipodi:docname="java.svg"
   inkscape:version="1.4 (e7c3feb100, 2024-10-09)"
   xmlns:inkscape="http://www.inkscape.org/namespaces/inkscape"
   xmlns:sodipodi="http://sodipodi.sourceforge.net/DTD/sodipodi-0.dtd"
   xmlns="http://www.w3.org/2000/svg"
   xmlns:svg="http://www.w3.org/2000/svg">
  <defs
     id="defs4">
    <inkscape:path-effect
       effect="fillet_chamfer"
       id="path-effect5"
       is_visible="true"
       lpeversion="1"
       nodesatellites_param="F,0,0,1,0,0.49801328,0,1 @ F,0,0,1,0,0.43708614,0,1 @ F,0,0,1,0,0.49801328,0,1 @ F,0,0,1,0,0.51655634,0,1"
       radius="0"
       unit="px"
       method="auto"
       mode="F"
       chamfer_steps="1"
       flexible="false"
       use_knot_distance="true"
       apply_no_radius="true"
       apply_with_radius="true"
       only_selected="false"
       hide_knots="false" />
  </defs>
  <sodipodi:namedview
     id="namedview4"
     pagecolor="#505050"
     bordercolor="#eeeeee"
     borderopacity="1"
     inkscape:showpageshadow="0"
     inkscape:pageopacity="0"
     inkscape:pagecheckerboard="0"
     inkscape:deskcolor="#505050"
     inkscape:zoom="37.75"
     inkscape:cx="8"
     inkscape:cy="8"
     inkscape:window-width="1316"
     inkscape:window-height="748"
     inkscape:window-x="20"
     inkscape:window-y="20"
     inkscape:window-maximized="0"
     inkscape:current-layer="svg4" />
  <title
     id="title1">rootFolder</title>
  <style
     id="style1">
		.s0 { fill: #8080a0 } 
		.s1 { fill: none;stroke: #f17f66 } 
		.s2 { fill: #f17f66 } 
	</style>
  <g
     id="Layer 1"
     style="display:inline">
    <path
       fill-rule="evenodd"
       class="s0"
       d="M 1,4.2 V 9 c 0,1.4 0,2.1 0.3,2.6 0.2,0.5 0.6,0.9 1.1,1.1 C 2.9,13 3.6,13 5,13 h 0.5 v -2.9 c 0,-2 0,-2.9 0.4,-3.7 C 6.2,5.8 6.8,5.2 7.4,4.9 8.2,4.5 9.1,4.5 11.1,4.5 h 2.7 q 0,-0.1 -0.1,-0.1 C 13.5,3.9 13.1,3.5 12.6,3.3 12.1,3 11.4,3 10,3 H 8.3 Q 8.2,3 8.1,3 8,3 7.9,2.9 7.9,2.9 7.8,2.8 L 7.2,2.2 C 6.7,1.7 6.5,1.5 6.3,1.4 Q 5.9,1.2 5.5,1.1 C 5.3,1 5,1 4.3,1 H 4.2 C 3.1,1 2.5,1 2.1,1.2 Q 1.5,1.5 1.2,2.1 C 1,2.5 1,3.1 1,4.2 Z"
       id="path1" />
  </g>
  <path
     class="s2"
     d="m7 8.8v-1c0-0.5 0-0.8 0.1-1 0.1-0.3 0.4-0.6 0.7-0.7 0.2-0.1 0.5-0.1 1-0.1h4c0.4 0 0.5 0 0.7 0.1q0.2 0.1 0.2 0.2c0.1 0.2 0.1 0.3 0.1 0.7v1.8c0 0.3 0 0.4 0 0.5-0.1 1.6-1.3 2.8-2.8 2.9-0.2 0-0.3 0-0.6 0-0.3 0-0.4 0-0.5 0-1.6-0.1-2.8-1.3-2.9-2.9 0-0.1 0-0.2 0-0.5z"
     id="path3" />
  <path
     style="display:inline;fill:#f17f66;fill-opacity:1"
     d="m 13.827815,6.9933775 0.794702,0.02649 0.13245,0.9271524 c 0,0 -0.264901,0.7417218 -0.900662,0.794702 -0.635762,0.05298 -0.132451,1.0596026 -0.132451,1.0596026 0,0 1.695365,-0.1059603 1.960265,-1.4834437 C 15.94702,6.9403974 15.496689,5.986755 14.887417,6.013245 14.278146,6.039735 13.324503,5.986755 13.324503,5.986755 Z"
     id="path5" />
  <path
     style="fill:#f17f66;fill-opacity:1"
     id="rect5"
     width="7.0993381"
     height="0.92715281"
     x="6.9933772"
     y="13.112583"
     inkscape:path-effect="#path-effect5"
     sodipodi:type="rect"
     d="m 7.4913905,13.112583 h 6.1642385 a 0.43708614,0.43708614 45 0 1 0.437086,0.437086 0.49405595,0.49405595 135.46079 0 1 -0.498013,0.490067 H 7.5099335 A 0.51655634,0.51655634 45 0 1 6.9933772,13.52318 0.45640261,0.45640261 140.49548 0 1 7.4913905,13.112583 Z" />
</svg>

<svg xmlns="http://www.w3.org/2000/svg" width="16" height="16" version="1.2"><g style="display:inline"><path fill-rule="evenodd" d="M1 4.2V9c0 1.4 0 2.1.3 2.6.2.5.6.9 1.1 1.1.5.3 1.2.3 2.6.3h.5v-2.9c0-2 0-2.9.4-3.7.3-.6.9-1.2 1.5-1.5.8-.4 1.7-.4 3.7-.4h2.7q0-.1-.1-.1c-.2-.5-.6-.9-1.1-1.1C12.1 3 11.4 3 10 3H8.1q-.1 0-.2-.1l-.1-.1-.6-.6c-.5-.5-.7-.7-.9-.8q-.4-.2-.8-.3C5.3 1 5 1 4.3 1h-.1c-1.1 0-1.7 0-2.1.2q-.6.3-.9.9c-.2.4-.2 1-.2 2.1" style="fill:#8080a0"/></g><path d="M7 8.8v-1c0-.5 0-.8.1-1 .1-.3.4-.6.7-.7.2-.1.5-.1 1-.1h4c.4 0 .5 0 .7.1q.2.1.2.2c.1.2.1.3.1.7v2.3c-.1 1.6-1.3 2.8-2.8 2.9H9.9c-1.6-.1-2.8-1.3-2.9-2.9z" style="fill:#f17f66"/><path d="m13.828 6.993.795.027.132.927s-.265.742-.9.795c-.636.053-.133 1.06-.133 1.06s1.695-.107 1.96-1.484-.185-2.331-.795-2.305c-.609.027-1.562-.026-1.562-.026Z" style="display:inline;fill:#f17f66;fill-opacity:1"/><path d="M7.491 13.113h6.165a.437.437 45 0 1 .437.437.494.494 135.46 0 1-.498.49H7.51a.517.517 45 0 1-.517-.517.456.456 140.495 0 1 .498-.41" style="fill:#f17f66;fill-opacity:1"/></svg>
